X:832
T:Queen Victoria's Country Dance
C:Kerr's collection
L:1/8
M:6/8
R:Jig
S:Colin Hume's website,  colinhume.com  - chords can also be printed below the stave.
Q:3/8=112
K:G
P:A
B |: "G"d2d e2d | "G"B2B "C"{d}c2B | "D7"A2A AGA | "G"B3 G2B |\
"G"ddd e2d | "/"BBB d2B | "Am"A2A "D7"ABA |1 "G"G3 G2B :|2 "G"G3 G2 ||
P:B
|: g | "D"f2d "D7"def | "G"g3 d2B | "Am"c2a "G"B2g | "D7"BA^G A2=g |\
"D"f2d def | "Em"g3 "A7"e2g | "D"f2d "A7"e2^c |1 "D"d3- d2 :|2 "D"d3 "D7"=cBc |]

